common/src/main/resources/icons/plugins/docker/DockerComposeScaledServiceStopped.svg

<!--
  - The MIT License (MIT)
  -
  - Copyright (c) 2015-2024 Elior "Mallowigi" Boukhobza
  -
  - Permission is hereby granted, free of charge, to any person obtaining a copy
  - of this software and associated documentation files (the "Software"), to deal
  - in the Software without restriction, including without limitation the rights
  - to use, copy, modify, merge, publish, distribute, sublicense, and/or sell
  - copies of the Software, and to permit persons to whom the Software is
  - furnished to do so, subject to the following conditions:
  -
  - The above copyright notice and this permission notice shall be included in all
  - copies or substantial portions of the Software.
  -
  - THE SOFTWARE IS PROVIDED "AS IS", WITHOUT WARRANTY OF ANY KIND, EXPRESS OR
  - IMPLIED, INCLUDING BUT NOT LIMITED TO THE WARRANTIES OF MERCHANTABILITY,
  - FITNESS FOR A PARTICULAR PURPOSE AND NONINFRINGEMENT. IN NO EVENT SHALL THE
  - AUTHORS OR COPYRIGHT HOLDERS BE LIABLE FOR ANY CLAIM, DAMAGES OR OTHER
  - LIABILITY, WHETHER IN AN ACTION OF CONTRACT, TORT OR OTHERWISE, ARISING FROM,
  - OUT OF OR IN CONNECTION WITH THE SOFTWARE OR THE USE OR OTHER DEALINGS IN THE
  - SOFTWARE.
  -->

<svg data-big="true" xmlns="http://www.w3.org/2000/svg" width="16" height="16" viewBox="0 0 16 16">
  <g fill="#808080" data-themed="true" fill-rule="evenodd">
    <g transform="translate(.4 5.6)">
      <path
        d="M14.85003,2.4387013 C14.8113087,2.40795205 14.4498501,2.13502498 13.6875724,2.13502498 C13.4862937,2.1359041 13.2854346,2.15316683 13.086953,2.18665335 C12.9394206,1.17542458 12.1033766,0.682397602 12.0658941,0.66027972 L11.8611988,0.542237762 L11.7265734,0.736503497 C11.6044374,0.925555184 11.5061887,1.12862673 11.4338479,1.34106901 C11.4063325,1.42187317 11.3825652,1.50403301 11.3626573,1.58729271 C11.2261738,2.16453546 11.3091708,2.70671329 11.6023976,3.17022977 C11.2483117,3.36755245 10.6802997,3.41612388 10.5653546,3.42041958 L0.6,3.42041958 C0.549957333,4.80102519 0.687446667,5.85944 1.012468,6.595664 C1.5,7.7 2.042777,8.40941 2.945414,8.83972 C3.848051,9.27003 4.4038961,9.415924 5.6979021,9.415924 C6.28247752,9.41776216 6.86595405,9.36485509 7.44067932,9.257942 C8.2396004,9.11124869 9.00837163,8.83200772 9.71518482,8.431728 C10.2975824,8.09446526 10.8217383,7.66541466 11.2673926,7.161079 C12.0124476,6.31766242 12.4563037,4.77834166 12.7863936,3.94355644 C12.8306494,3.94355644 12.8749251,3.94355644 12.9179421,3.94355644 C13.7336863,3.94355644 14.2353247,3.61712288 14.5119481,3.34357642 C14.6957842,3.16911089 14.8393007,2.95658342 14.9324276,2.72085914 L14.9908292,2.54997003 L14.85003,2.4387013 Z"/>
      <circle cx="4.75" cy="5.65" r="1.25" fill="#FFF"/>
      <circle cx="4.75" cy="5.65" r="1" fill-rule="nonzero"/>
    </g>
    <rect width="3" height="3" x="3" y="5" fill-rule="nonzero"/>
    <rect width="3" height="3" x="7" y="5" fill-rule="nonzero"/>
    <rect width="3" height="3" x="5" y="1" fill-rule="nonzero"/>
  </g>
</svg>

<svg xmlns="http://www.w3.org/2000/svg" width="16" height="16" data-big="true"><g fill="gray" fill-rule="evenodd" data-themed="true"><g transform="translate(.4 5.6)"><path d="M14.85 2.439c-.039-.031-.4-.304-1.162-.304q-.304 0-.601.052C12.939 1.175 12.103.682 12.066.66L11.86.542l-.134.195a2.7 2.7 0 0 0-.364.85c-.137.578-.054 1.12.24 1.583-.355.198-.923.246-1.038.25H.6q-.075 2.072.412 3.176C1.5 7.7 2.042 8.409 2.945 8.84c.903.43 1.459.576 2.753.576a9.4 9.4 0 0 0 1.743-.158 7.3 7.3 0 0 0 2.274-.826 6.3 6.3 0 0 0 1.552-1.27c.745-.844 1.19-2.384 1.52-3.218h.13c.817 0 1.318-.327 1.595-.6a1.7 1.7 0 0 0 .42-.623l.059-.171z"/><circle cx="4.75" cy="5.65" r="1.25" fill="#FFF"/><circle cx="4.75" cy="5.65" r="1" fill-rule="nonzero"/></g><path fill-rule="nonzero" d="M3 5h3v3H3zM7 5h3v3H7zM5 1h3v3H5z"/></g></svg>
